dist/svg/u1F407.svg

<?xml version="1.0" encoding="UTF-8"?><svg id="Layer_1" xmlns="http://www.w3.org/2000/svg" viewBox="0 0 40 40"><g><path d="M32.13251,11.08354s-3.34745-1.67372-4.90959,1.39477c-1.56214,3.06849-2.00847,4.12852-7.75492,7.30859-5.74645,3.18008-10.20972,7.83177-11.26974,11.79292-.846,3.16137,.54678,6.00291,1.14369,7.02148,.1473,.25135,.41496,.3987,.7063,.3987H29.1802c.23631,0,.41603-.21715,.36007-.44674-.2115-.86774-.93957-2.70405-3.32159-2.78912h0s1.95268-2.84533,2.00847-10.3213c.03962-5.30843,3.45476-6.50805,5.43176-7.10109,.91043-.2731,1.66978-.89633,2.08258-1.75251l.37414-.776c.28424-.58954,.25134-1.29237-.117-1.83337-.62765-.92186-1.84371-2.26868-3.86613-2.89633Z" style="fill:#dfdfdf;"/><circle cx="7.2391" cy="31.24852" r="3.54419" style="fill:#dfdfdf;"/><path d="M21.11379,11.27665c3.1293,1.40705,8.30174,1.26152,8.30174,1.26152,0,0-3.26168-4.10404-6.39098-5.51109-3.1293-1.40705-6.09383-1.59639-6.62148-.4229-.52764,1.17349,1.58142,3.26542,4.71071,4.67247Z" style="fill:#dfdfdf;"/><path d="M23.48983,7.58176c2.01219,2.7791,6.56942,5.23001,6.56942,5.23001,0,0-.78323-5.18346-2.79542-7.96256-2.01219-2.7791-4.48823-4.4203-5.53039-3.66573-1.04216,.75457-.2558,3.61918,1.75639,6.39827Z" style="fill:#dfdfdf;"/><circle cx="32.38737" cy="14.04921" r=".95574"/></g><rect width="40" height="40" style="fill:none;"/></svg>

<svg id="Layer_1" data-name="Layer 1" xmlns="http://www.w3.org/2000/svg" viewBox="0 0 40 40"><defs><style>.cls-1{fill:#dfc2c0;}.cls-2{fill:none;}</style></defs><path class="cls-1" d="M32.133,11.084s-3.348-1.674-4.91,1.394-2.009,4.129-7.755,7.309S9.258,27.619,8.2,31.58A9.518,9.518,0,0,0,9.342,38.6a.81.81,0,0,0,.706.4H29.18a.365.365,0,0,0,.36-.447,3.418,3.418,0,0,0-3.321-2.789h0s1.952-2.845,2.008-10.321c.04-5.309,3.455-6.508,5.432-7.1a3.364,3.364,0,0,0,2.082-1.753l.375-.776A1.843,1.843,0,0,0,36,13.98,7.311,7.311,0,0,0,32.133,11.084Z"/><circle class="cls-1" cx="7.239" cy="31.249" r="3.544"/><path class="cls-1" d="M21.114,11.277c3.129,1.407,8.3,1.261,8.3,1.261s-3.262-4.1-6.391-5.511S16.931,5.431,16.4,6.6,17.984,9.87,21.114,11.277Z"/><path class="cls-1" d="M23.49,7.582c2.012,2.779,6.569,5.23,6.569,5.23s-.783-5.184-2.8-7.963S22.776.429,21.733,1.183,21.478,4.8,23.49,7.582Z"/><circle cx="32.387" cy="14.049" r="0.956"/><rect class="cls-2" width="40" height="40"/></svg>
